X: 22
T: The Banquet of Fancy
%R: jig
B: Cahusac "Annual Collection of Twenty-four favorite Country Dances For the Year 1809", p.11 #2
F: http://imslp.org/wiki/24_Country_Dances_for_the_Year_1809_%28Various%29
F: http://javanese.imslp.info/files/imglnks/usimg/0/0d/IMSLP351863-PMLP71785-wm_cahusac_24_dances_1809.pdf
Z: 2015 by John Chambers  <jc:trillian.mit.edu>
M: 6/8
L: 1/8
K: Bb
% - - - - - - - - - - - - - - - - - - - - - - - - - - - - -
|:\
f2d Bdf | fec dBF | FGA Bcd | fec A2F |\
f2d Bdf | fec dBF | FGA Bcd | ez c B2"_Fine."F H:|
e2d cfe | d2c B2d | cAA FGA | BdB F2F |\
e2d cfe | d2c B2c | A2A {A}GFG | FcA fc"_D.C."a |]
% - - - - - - - - - - Dance description - - - - - - - - - -
%%begintext align
%% 1st Lady set to 2d Gent: & turn round with both hands,
%% 1st Gent: do the same, Pousette, & Right & left.
%%endtext

%%sep 1 1 500
%%sep 1 1 500
